assets/home/icon_bulletin.svg

<svg class="icon" height="200" version="1.1" viewBox="0 0 1024 1024" width="200"
  xmlns="http://www.w3.org/2000/svg">
  <path
    d="M956.945067 905.710933H67.072l1.0752-598.596266h887.381333M68.130133 239.0016C31.095467 239.0016 0 267.298133 0 304.349867v601.361066A67.072 67.072 0 0 0 67.054933 972.8H956.928A67.072 67.072 0 0 0 1024 905.710933V304.349867c0-37.051733-31.470933-65.365333-68.488533-65.365334H68.130133z m167.8848 239.701333a33.536 33.536 0 0 0 0 67.089067h469.333334a33.536 33.536 0 0 0 0-67.089067h-469.333334z m-2.389333 204.663467a33.536 33.536 0 0 0 0 67.106133H531.968a33.536 33.536 0 0 0 0-67.106133H233.608533z m386.816-396.458667l-79.121067-144.264533a33.501867 33.501867 0 0 0-41.5744 0l-79.121066 144.264533-58.999467-32.2048 87.842133-157.013333a100.522667 100.522667 0 0 1 142.1312 0l5.376 7.389867 81.783467 148.9408-58.3168 32.887466z"
    fill="#121649"></path>
</svg>

<svg class="icon" height="200" viewBox="0 0 1024 1024" width="200" xmlns="http://www.w3.org/2000/svg"><path d="M956.945 905.71H67.072l1.075-598.595H955.53M68.13 239.002C31.095 239.002 0 267.298 0 304.35v601.36a67.072 67.072 0 0 0 67.055 67.09h889.873A67.072 67.072 0 0 0 1024 905.71V304.35c0-37.052-31.47-65.365-68.489-65.365H68.131zm167.885 239.7a33.536 33.536 0 0 0 0 67.09h469.333a33.536 33.536 0 0 0 0-67.09H236.015zm-2.39 204.664a33.536 33.536 0 0 0 0 67.107h298.343a33.536 33.536 0 0 0 0-67.107h-298.36zm386.817-396.458L541.32 142.643a33.502 33.502 0 0 0-41.575 0l-79.12 144.265-59-32.205L449.468 97.69a100.523 100.523 0 0 1 142.13 0l5.377 7.39 81.783 148.94-58.316 32.888z" fill="#121649"/></svg>
